X: 520
T: Mrs Mackenzie's Strathspey
R: strathspey
B: "Preston's Twenty Four Country Dances for the Year 1804", Tho. Preston, ed. p.220
F: http://imslp.org/wiki/24_Country_Dances_for_the_Year_1804_(Preston_(publisher),_Thomas)
M: C
L: 1/16
K: Fc2 |
c2 |\
A3cG2A2 FEDE C2E2 | A2F2c2F2 d2F2 BAGF |\
A3cG3A FEDE C3E | F2(d2c2)C2 D2F2F2 :|
f2 |\
c2de f2c2 A2F2c2A2 | G2(fa) b2g2 d2f2g2a2 |\
c2de f2c2 A2F2c2A2 | B2d2c2C2 D2F2-F2f2 |
c2de f2c2 A2F2c2A2 | G2(fa) b2g2 d2f2g2a2 |\
f3cA2d2 c3AF2A2 | G2B2A2F2 C2F2F2 |]
% - - - - - - - - - - - - - - - - - - - - - - - - -
%%begintext align
%% Set & hands across, back again, lead down
%% the middle up again cast off right & left
%% at top.
%%endtext

%%sep 1 1 500
